X:2
T:Logan Water
M:C|
L:1/8
K:Ador
GA|"Am"c2A2 ABcA|"G"GEDE   G2ed|"Am"c2A2 AcBG|"C"cBcd e4|
"D"f2df "C"e2ce|"G"d>cB>A G3 B|"Am"A>Bc>d "E7"efde|"Am"c2A2 A2:|
fg|"Am"a2A2 ABcA|"G"G>ED>E G2fg|"Am"a2A2 AcBG|"C"cBcd e4|
"D"f2df "C"e2ce|"G"d>cB>A G3 B|"Am"A>Bc>d "E7"efde|"Am"c2A2 A2:|
